lib/svgs/dropbox.svg

<?xml version="1.0" encoding="UTF-8" standalone="no"?>
<svg width="20px" height="20px" viewBox="0 0 20 20" version="1.1" xmlns="http://www.w3.org/2000/svg" xmlns:xlink="http://www.w3.org/1999/xlink">
    <defs></defs>
    <g id="Icons" stroke="none" stroke-width="1" fill="none" fill-rule="evenodd">
        <g id="Web" transform="translate(-193.000000, -988.000000)" fill="#000000">
            <g id="brand/dropbox" transform="translate(193.000000, 988.000000)">
                <path d="M6.71888,15.0378836 L5.25008,14.0924071 L5.25008,15.1324312 L9.9688,18 L14.68752,15.1324312 L14.68752,14.0924071 L13.31248,15.0378836 L9.9688,12.233239 L6.71888,15.0378836 L6.71888,15.0378836 L6.71888,15.0378836 M13.25008,3 L9.9688,5.77318246 L14.71888,8.73529886 L9.9688,11.6659532 L13.25008,14.4075122 L18,11.319386 L14.71888,8.73529886 L18,6.05682539 L13.25008,3 L13.25008,3 L13.25008,3 M6.71888,3 L2,6.05682539 L5.25008,8.73529886 L9.9688,5.77318246 L6.71888,3 L6.71888,3 L6.71888,3 M2,11.319386 L6.71888,14.4075122 L9.9688,11.6659532 L5.25008,8.73529886 L2,11.319386 L2,11.319386 L2,11.319386" id="Shape"></path>
            </g>
        </g>
    </g>
</svg>

<svg xmlns="http://www.w3.org/2000/svg" viewBox="0 0 20 20">
    <path fill="#000" fill-rule="evenodd" d="M6.719 15.038l-1.469-.946v1.04L9.97 18l4.719-2.868v-1.04l-1.376.946-3.343-2.805-3.25 2.805M13.25 3L9.97 5.773l4.75 2.962-4.75 2.931 3.281 2.742L18 11.319l-3.281-2.584L18 6.057 13.25 3M6.72 3L2 6.057l3.25 2.678L9.97 5.773 6.719 3M2 11.32l4.719 3.088 3.25-2.742-4.719-2.93L2 11.318"/>
</svg>
